img/whatsapp.svg

<svg width="40" height="40" viewBox="0 0 40 40" fill="none" xmlns="http://www.w3.org/2000/svg">
<path d="M37.0085 9.24977C31.025 -0.000306019 18.8087 -2.75033 9.33481 2.99972C0.110229 8.74976 -2.88153 21.2499 3.10199 30.4999L3.60061 31.2499L1.60611 38.75L9.0855 36.75L9.83344 37.25C13.0745 39 16.5649 40 20.0553 40C23.795 40 27.5347 39 30.7757 37C40.0003 30.9999 42.7427 18.7498 37.0085 9.24977ZM31.773 28.4999C30.7757 29.9999 29.5292 30.9999 27.784 31.2499C26.7867 31.2499 25.5401 31.7499 20.5539 29.7499C16.3156 27.7499 12.8252 24.4999 10.3321 20.7499C8.83618 18.9998 8.08824 16.7498 7.83893 14.4998C7.83893 12.4998 8.58687 10.7498 9.83344 9.49977C10.3321 8.99976 10.8307 8.74976 11.3293 8.74976H12.5759C13.0745 8.74976 13.5731 8.74976 13.8224 9.74977C14.3211 10.9998 15.5676 13.9998 15.5676 14.2498C15.8169 14.4998 15.8169 14.9998 15.5676 15.2498C15.8169 15.7498 15.5676 16.2498 15.3183 16.4998C15.069 16.7498 14.8197 17.2498 14.5704 17.4998C14.0718 17.7498 13.8224 18.2498 14.0718 18.7498C15.069 20.2498 16.3156 21.7499 17.5621 22.9999C19.058 24.2499 20.5539 25.2499 22.2991 25.9999C22.7977 26.2499 23.2963 26.2499 23.5456 25.7499C23.795 25.2499 25.0415 23.9999 25.5402 23.4999C26.0388 22.9999 26.2881 22.9999 26.7867 23.2499L30.7757 25.2499C31.2744 25.4999 31.773 25.7499 32.0223 25.9999C32.2716 26.7499 32.2716 27.7499 31.773 28.4999Z" fill="#03d4d9"/>
</svg>

<svg width="40" height="40" fill="none" xmlns="http://www.w3.org/2000/svg"><path d="M37.008 9.25C31.025 0 18.808-2.75 9.335 3 .11 8.75-2.882 21.25 3.102 30.5l.499.75-1.995 7.5 7.48-2 .747.5C13.075 39 16.565 40 20.055 40c3.74 0 7.48-1 10.72-3C40 31 42.744 18.75 37.009 9.25ZM31.773 28.5c-.997 1.5-2.244 2.5-3.989 2.75-.997 0-2.244.5-7.23-1.5-4.238-2-7.729-5.25-10.222-9-1.496-1.75-2.244-4-2.493-6.25 0-2 .748-3.75 1.994-5 .5-.5.998-.75 1.496-.75h1.247c.498 0 .997 0 1.246 1 .5 1.25 1.746 4.25 1.746 4.5.249.25.249.75 0 1 .249.5 0 1-.25 1.25-.249.25-.498.75-.748 1-.498.25-.748.75-.498 1.25.997 1.5 2.244 3 3.49 4.25 1.496 1.25 2.992 2.25 4.737 3 .499.25.997.25 1.247-.25.249-.5 1.495-1.75 1.994-2.25.499-.5.748-.5 1.247-.25l3.989 2c.498.25.997.5 1.246.75.25.75.25 1.75-.249 2.5Z" fill="#03d4d9"/></svg>
